icons-dark/places/64/folder-network.svg

<?xml version="1.0" encoding="UTF-8" standalone="no"?>

<!-- Created with Inkscape (http://www.inkscape.org/) -->
<svg width="64" version="1.1" xmlns="http://www.w3.org/2000/svg" height="64" xmlns:xlink="http://www.w3.org/1999/xlink" xmlns:inkscape="http://www.inkscape.org/namespaces/inkscape">
 <defs id="defs5455">
  <linearGradient inkscape:collect="always" id="linearGradient4178" xlink:href="#linearGradient4172-5" y1="541.79797" y2="499.78421" gradientUnits="userSpaceOnUse" x2="0" gradientTransform="matrix(1 0 0 0.99967455 0 0.17645)"/>
  <linearGradient inkscape:collect="always" id="linearGradient4172-5">
   <stop style="stop-color:#3daee9" id="stop4174-6"/>
   <stop offset="1" style="stop-color:#6cc1ef" id="stop4176-6"/>
  </linearGradient>
 </defs>
 <metadata id="metadata5458"/>
 <g inkscape:label="Capa 1" inkscape:groupmode="layer" id="layer1" transform="matrix(1 0 0 1 -384.57143 -483.798)">
  <g inkscape:label="Capa 1" id="layer1-5" transform="matrix(1 0 0 1 0 0.000005)">
   <path inkscape:connector-curvature="0" style="fill:#147eb8" id="rect4180" d="m 388.57143,489.79812 0,5 0,22 c 0,0.55373 0.446,1 1,1 l 54,0 c 0.55399,0 1,-0.44627 1,-1 l 0,-21.99023 c 0,-0.003 -0.002,-0.006 -0.002,-0.01 l 0.002,0 0,-1 -28,0 -4,-4 -24,0 z"/>
   <path inkscape:connector-curvature="0" style="fill:url(#linearGradient4178)" id="rect4113" d="m 410.57143,499.79812 -4,4 -19,0 0,1 0.002,0 c -5e-5,0.004 -0.002,0.008 -0.002,0.0117 l 0,35.98828 0,1 1,0 56,0 1,0 0,-1 0,-35.98828 0,-0.0117 0,-5 z"/>
   <path inkscape:connector-curvature="0" style="fill:#ffffff;fill-opacity:0.235294;fill-rule:evenodd" id="path4224" d="m 387.57144,503.79812 0,1 19.99999,0 3,-5 -4,4 z"/>
   <path inkscape:connector-curvature="0" style="fill-opacity:0.235294;fill-rule:evenodd" id="path4228" d="m 388.57143,502.79812 0,1 18,0 4,-4 -6,3 z"/>
   <path inkscape:connector-curvature="0" style="fill-opacity:0.235294" id="path4151-2" d="m 387.57143,540.7981 0,1 1,0 56,0 1,0 0,-1 -1,0 -56,0 -1,0 z"/>
   <path inkscape:connector-curvature="0" style="fill:#ffffff;fill-opacity:0.235294;fill-rule:evenodd" id="path4196" d="m 28,6 3,5 2,0 27,0 0,-1 -27,0 -1,0 z" transform="matrix(1 0 0 1 384.57143 483.798)"/>
  </g>
  <path style="fill:#1272a5;color:#000000;fill-rule:evenodd;stroke-width:0.1" id="path3858" d="M 38.900391 27 A 2 2 0 0 0 36.900391 29 A 2 2 0 0 0 38.900391 31 A 2 2 0 0 0 40.900391 29 A 2 2 0 0 0 38.900391 27 z M 35.400391 30 A 0.5 0.5 0 0 0 34.900391 30.5 A 0.5 0.5 0 0 0 35.400391 31 A 0.5 0.5 0 0 0 35.900391 30.5 A 0.5 0.5 0 0 0 35.400391 30 z M 32.400391 32 A 0.5 0.5 0 0 0 31.900391 32.5 A 0.5 0.5 0 0 0 32.400391 33 A 0.5 0.5 0 0 0 32.900391 32.5 A 0.5 0.5 0 0 0 32.400391 32 z M 29.400391 34 A 0.5 0.5 0 0 0 28.900391 34.5 A 0.5 0.5 0 0 0 29.400391 35 A 0.5 0.5 0 0 0 29.900391 34.5 A 0.5 0.5 0 0 0 29.400391 34 z M 24.900391 35 A 2 2 0 0 0 22.900391 37 A 2 2 0 0 0 24.900391 39 A 2 2 0 0 0 26.900391 37 A 2 2 0 0 0 24.900391 35 z M 29.400391 39 A 0.5 0.5 0 0 0 28.900391 39.5 A 0.5 0.5 0 0 0 29.400391 40 A 0.5 0.5 0 0 0 29.900391 39.5 A 0.5 0.5 0 0 0 29.400391 39 z M 32.400391 41 A 0.5 0.5 0 0 0 31.900391 41.5 A 0.5 0.5 0 0 0 32.400391 42 A 0.5 0.5 0 0 0 32.900391 41.5 A 0.5 0.5 0 0 0 32.400391 41 z M 35.400391 43 A 0.5 0.5 0 0 0 34.900391 43.5 A 0.5 0.5 0 0 0 35.400391 44 A 0.5 0.5 0 0 0 35.900391 43.5 A 0.5 0.5 0 0 0 35.400391 43 z M 38.900391 43 A 2 2 0 0 0 36.900391 45 A 2 2 0 0 0 38.900391 47 A 2 2 0 0 0 40.900391 45 A 2 2 0 0 0 38.900391 43 z " transform="matrix(1 0 0 1 384.57143 483.798)"/>
 </g>
</svg>

<svg width="64" height="64" version="1.1" xmlns="http://www.w3.org/2000/svg">
 <defs>
  <linearGradient id="a" x2="0" y1="58" y2="16" gradientUnits="userSpaceOnUse">
   <stop stop-color="#3daee9" offset="0"/>
   <stop stop-color="#6cc1ef" offset="1"/>
  </linearGradient>
 </defs>
 <path d="m60 33v-23h-28l-4-4-24 1.1e-4v27z" fill="#147eb8"/>
 <path d="m22 20h-19v38h58v-42h-35z" fill="url(#a)"/>
 <g fill-opacity=".24">
  <g fill="#fff">
   <path d="m31 11h29v-1h-28l-4-4z"/>
   <path d="m3 20v1h20s3-5 3-5l-4 4h-19"/>
  </g>
  <g>
   <path d="m3 57v1h58v-1h-58"/>
   <path d="m4 19v1h18l4-4-6 3h-16"/>
  </g>
 </g>
 <path d="m38.9 27a2 2 0 0 0-2 2 2 2 0 0 0 2 2 2 2 0 0 0 2-2 2 2 0 0 0-2-2zm-3.5 3a0.5 0.5 0 0 0-0.5 0.5 0.5 0.5 0 0 0 0.5 0.5 0.5 0.5 0 0 0 0.5-0.5 0.5 0.5 0 0 0-0.5-0.5zm-3 2a0.5 0.5 0 0 0-0.5 0.5 0.5 0.5 0 0 0 0.5 0.5 0.5 0.5 0 0 0 0.5-0.5 0.5 0.5 0 0 0-0.5-0.5zm-3 2a0.5 0.5 0 0 0-0.5 0.5 0.5 0.5 0 0 0 0.5 0.5 0.5 0.5 0 0 0 0.5-0.5 0.5 0.5 0 0 0-0.5-0.5zm-4.5 1a2 2 0 0 0-2 2 2 2 0 0 0 2 2 2 2 0 0 0 2-2 2 2 0 0 0-2-2zm4.5 4a0.5 0.5 0 0 0-0.5 0.5 0.5 0.5 0 0 0 0.5 0.5 0.5 0.5 0 0 0 0.5-0.5 0.5 0.5 0 0 0-0.5-0.5zm3 2a0.5 0.5 0 0 0-0.5 0.5 0.5 0.5 0 0 0 0.5 0.5 0.5 0.5 0 0 0 0.5-0.5 0.5 0.5 0 0 0-0.5-0.5zm3 2a0.5 0.5 0 0 0-0.5 0.5 0.5 0.5 0 0 0 0.5 0.5 0.5 0.5 0 0 0 0.5-0.5 0.5 0.5 0 0 0-0.5-0.5zm3.5 0a2 2 0 0 0-2 2 2 2 0 0 0 2 2 2 2 0 0 0 2-2 2 2 0 0 0-2-2z" color="#000000" fill="#1272a5" fill-rule="evenodd" stroke-width=".1"/>
</svg>
